static/img/kroki/c78656d58662723021aa4c32cc232ecd.svg

<?xml version="1.0" encoding="us-ascii" standalone="no"?><svg xmlns="http://www.w3.org/2000/svg" xmlns:xlink="http://www.w3.org/1999/xlink" contentStyleType="text/css" height="252px" preserveAspectRatio="none" style="width:219px;height:252px;" version="1.1" viewBox="0 0 219 252" width="219px" zoomAndPan="magnify"><defs/><g><!--class gcp_disk_type--><g id="elem_gcp_disk_type"><rect codeLine="23" fill="#3D176E" height="39.7891" id="gcp_disk_type" rx="2.5" ry="2.5" style="stroke:#000D19;stroke-width:0.5;" width="158" x="30.5" y="7"/><ellipse cx="45.5" cy="26.8945" fill="#ADD1B2" rx="11" ry="11" style="stroke:#181818;stroke-width:1.0;"/><path d="M48.4688,32.5352 Q47.8906,32.832 47.25,32.9727 Q46.6094,33.1289 45.9063,33.1289 Q43.4063,33.1289 42.0781,31.4883 Q40.7656,29.832 40.7656,26.707 Q40.7656,23.582 42.0781,21.9258 Q43.4063,20.2695 45.9063,20.2695 Q46.6094,20.2695 47.25,20.4258 Q47.9063,20.582 48.4688,20.8789 L48.4688,23.5977 Q47.8438,23.0195 47.25,22.7539 Q46.6563,22.4727 46.0313,22.4727 Q44.6875,22.4727 44,23.5508 Q43.3125,24.6133 43.3125,26.707 Q43.3125,28.8008 44,29.8789 Q44.6875,30.9414 46.0313,30.9414 Q46.6563,30.9414 47.25,30.6758 Q47.8438,30.3945 48.4688,29.8164 L48.4688,32.5352 Z " fill="#000000"/><text fill="#D9B8FF" font-family="Helvetica" font-size="17" lengthAdjust="spacing" textLength="116" x="64.5" y="32.7798">gcp_disk_type</text></g><!--class gcp_node_group--><g id="elem_gcp_node_group"><rect codeLine="26" fill="#3D176E" height="39.7891" id="gcp_node_group" rx="2.5" ry="2.5" style="stroke:#000D19;stroke-width:0.5;" width="177" x="21" y="206.58"/><ellipse cx="36" cy="226.4745" fill="#ADD1B2" rx="11" ry="11" style="stroke:#181818;stroke-width:1.0;"/><path d="M38.9688,232.1152 Q38.3906,232.412 37.75,232.5527 Q37.1094,232.7089 36.4063,232.7089 Q33.9063,232.7089 32.5781,231.0683 Q31.2656,229.412 31.2656,226.287 Q31.2656,223.162 32.5781,221.5058 Q33.9063,219.8495 36.4063,219.8495 Q37.1094,219.8495 37.75,220.0058 Q38.4063,220.162 38.9688,220.4589 L38.9688,223.1777 Q38.3438,222.5995 37.75,222.3339 Q37.1563,222.0527 36.5313,222.0527 Q35.1875,222.0527 34.5,223.1308 Q33.8125,224.1933 33.8125,226.287 Q33.8125,228.3808 34.5,229.4589 Q35.1875,230.5214 36.5313,230.5214 Q37.1563,230.5214 37.75,230.2558 Q38.3438,229.9745 38.9688,229.3964 L38.9688,232.1152 Z " fill="#000000"/><text fill="#D9B8FF" font-family="Helvetica" font-size="17" lengthAdjust="spacing" textLength="135" x="55" y="232.3598">gcp_node_group</text></g><!--class gcp_node_template--><g id="elem_gcp_node_template"><rect codeLine="29" fill="#3D176E" height="39.7891" id="gcp_node_template" rx="2.5" ry="2.5" style="stroke:#000D19;stroke-width:0.5;" width="205" x="7" y="106.79"/><ellipse cx="22" cy="126.6845" fill="#ADD1B2" rx="11" ry="11" style="stroke:#181818;stroke-width:1.0;"/><path d="M24.9688,132.3252 Q24.3906,132.622 23.75,132.7627 Q23.1094,132.9189 22.4063,132.9189 Q19.9063,132.9189 18.5781,131.2783 Q17.2656,129.622 17.2656,126.497 Q17.2656,123.372 18.5781,121.7158 Q19.9063,120.0595 22.4063,120.0595 Q23.1094,120.0595 23.75,120.2158 Q24.4063,120.372 24.9688,120.6689 L24.9688,123.3877 Q24.3438,122.8095 23.75,122.5439 Q23.1563,122.2627 22.5313,122.2627 Q21.1875,122.2627 20.5,123.3408 Q19.8125,124.4033 19.8125,126.497 Q19.8125,128.5908 20.5,129.6689 Q21.1875,130.7314 22.5313,130.7314 Q23.1563,130.7314 23.75,130.4658 Q24.3438,130.1845 24.9688,129.6064 L24.9688,132.3252 Z " fill="#000000"/><text fill="#D9B8FF" font-family="Helvetica" font-size="17" lengthAdjust="spacing" textLength="163" x="41" y="132.5698">gcp_node_template</text></g><!--link gcp_disk_type to gcp_node_template--><g id="link_gcp_disk_type_gcp_node_template"><path codeLine="32" d="M109.5,47.22 C109.5,64.36 109.5,83.27 109.5,100.41 " fill="none" id="gcp_disk_type-to-gcp_node_template" style="stroke:#1A83AF;stroke-width:2.0;"/><polygon fill="#1A83AF" points="109.5,106.41,113.5,97.41,109.5,101.41,105.5,97.41,109.5,106.41" style="stroke:#1A83AF;stroke-width:2.0;"/></g><!--link gcp_node_template to gcp_node_group--><g id="link_gcp_node_template_gcp_node_group"><path codeLine="33" d="M109.5,147.01 C109.5,164.15 109.5,183.06 109.5,200.2 " fill="none" id="gcp_node_template-to-gcp_node_group" style="stroke:#1A83AF;stroke-width:2.0;"/><polygon fill="#1A83AF" points="109.5,206.2,113.5,197.2,109.5,201.2,105.5,197.2,109.5,206.2" style="stroke:#1A83AF;stroke-width:2.0;"/></g><!--SRC=[XP91Qy9048Nl-HKBdWNJq9fS2b6GzYAbzbPAMBEpoP9aDyoE5LlwtslKbZKRzRhlUs_U35ig0GoQbdQiWMODQ0DRATrov0rB4SrsRcg3R2Gbbz6qBowCffl0aZV0dg3-158vxnDlfSeh3TQoEqUQyRmgq6oqECOJSctt4cXog7dDhKs9KAqt14uPaQnZAVjaFtGKYN3w01vcK02UaCba8iAaZzmSTNNlVsAble25xj6MXi2hwOquK5TRTeHJqblqJx_OyOKBeNJ1xfstrsCdr81dxwkI2xFjQCbhwuwn10Y6TYtClQqWYOMS3iBFb-0Wxqx7YhpDXB9Lri7iEmX-744R0LbdRWSLsl_scjF9TfuqVX-5QHobYu_ne-y8_8nXms5uy0i0]--></g></svg>

<svg xmlns="http://www.w3.org/2000/svg" width="219" height="252" viewBox="0 0 219 252"><rect width="158" height="39.789" x="30.5" y="7" fill="#3D176E" rx="2.5" ry="2.5" style="stroke:#000d19;stroke-width:.5"/><circle cx="45.5" cy="26.895" r="11" fill="#ADD1B2" style="stroke:#181818;stroke-width:1"/><path d="M48.469 32.535q-.578.297-1.219.438-.64.156-1.344.156-2.5 0-3.828-1.64-1.312-1.657-1.312-4.782t1.312-4.781q1.328-1.656 3.828-1.656.703 0 1.344.156.656.156 1.219.453v2.719q-.625-.578-1.219-.844-.594-.281-1.219-.281-1.343 0-2.031 1.078-.687 1.062-.687 3.156T44 29.879q.688 1.062 2.031 1.062.625 0 1.219-.265.594-.281 1.219-.86z"/><text x="64.5" y="32.78" fill="#D9B8FF" font-family="Helvetica" font-size="17" textLength="116">gcp_disk_type</text><rect width="177" height="39.789" x="21" y="206.58" fill="#3D176E" rx="2.5" ry="2.5" style="stroke:#000d19;stroke-width:.5"/><circle cx="36" cy="226.475" r="11" fill="#ADD1B2" style="stroke:#181818;stroke-width:1"/><path d="M38.969 232.115q-.578.297-1.219.438-.64.156-1.344.156-2.5 0-3.828-1.64-1.312-1.657-1.312-4.782t1.312-4.781q1.328-1.656 3.828-1.656.703 0 1.344.156.656.156 1.219.453v2.719q-.625-.578-1.219-.844-.594-.281-1.219-.281-1.343 0-2.031 1.078-.687 1.062-.687 3.156t.687 3.172q.688 1.062 2.031 1.062.625 0 1.219-.265.594-.281 1.219-.86z"/><text x="55" y="232.36" fill="#D9B8FF" font-family="Helvetica" font-size="17" textLength="135">gcp_node_group</text><rect width="205" height="39.789" x="7" y="106.79" fill="#3D176E" rx="2.5" ry="2.5" style="stroke:#000d19;stroke-width:.5"/><circle cx="22" cy="126.684" r="11" fill="#ADD1B2" style="stroke:#181818;stroke-width:1"/><path d="M24.969 132.325q-.578.297-1.219.438-.64.156-1.344.156-2.5 0-3.828-1.64-1.312-1.657-1.312-4.782t1.312-4.781q1.328-1.656 3.828-1.656.703 0 1.344.156.656.156 1.219.453v2.719q-.625-.579-1.219-.844-.594-.281-1.219-.281-1.343 0-2.031 1.078-.687 1.062-.687 3.156t.687 3.172q.688 1.062 2.031 1.062.625 0 1.219-.265.594-.281 1.219-.86z"/><text x="41" y="132.57" fill="#D9B8FF" font-family="Helvetica" font-size="17" textLength="163">gcp_node_template</text><path fill="none" d="M109.5 47.22v53.19" style="stroke:#1a83af;stroke-width:2"/><path fill="#1A83AF" d="m109.5 106.41 4-9-4 4-4-4z" style="stroke:#1a83af;stroke-width:2"/><path fill="none" d="M109.5 147.01v53.19" style="stroke:#1a83af;stroke-width:2"/><path fill="#1A83AF" d="m109.5 206.2 4-9-4 4-4-4z" style="stroke:#1a83af;stroke-width:2"/></svg>
